src/images/kwis-icon-name.svg

<svg width="25" height="25" viewBox="0 0 25 25" fill="none" xmlns="http://www.w3.org/2000/svg">
<path fill-rule="evenodd" clip-rule="evenodd" d="M12.166 4.89502C9.95688 4.89502 8.16602 6.68588 8.16602 8.89502C8.16602 11.1042 9.95688 12.895 12.166 12.895C14.3752 12.895 16.166 11.1042 16.166 8.89502C16.166 6.68588 14.3752 4.89502 12.166 4.89502ZM6.16602 8.89502C6.16602 5.58131 8.85231 2.89502 12.166 2.89502C15.4797 2.89502 18.166 5.58131 18.166 8.89502C18.166 12.2087 15.4797 14.895 12.166 14.895C8.85231 14.895 6.16602 12.2087 6.16602 8.89502ZM8.16602 18.895C6.50916 18.895 5.16602 20.2382 5.16602 21.895C5.16602 22.4473 4.7183 22.895 4.16602 22.895C3.61373 22.895 3.16602 22.4473 3.16602 21.895C3.16602 19.1336 5.40459 16.895 8.16602 16.895H16.166C18.9274 16.895 21.166 19.1336 21.166 21.895C21.166 22.4473 20.7183 22.895 20.166 22.895C19.6137 22.895 19.166 22.4473 19.166 21.895C19.166 20.2382 17.8229 18.895 16.166 18.895H8.16602Z" fill="#999999"/>
</svg>

<svg xmlns="http://www.w3.org/2000/svg" width="25" height="25" fill="none"><path fill="#999" fill-rule="evenodd" d="M12.166 4.895a4 4 0 1 0 0 8 4 4 0 0 0 0-8Zm-6 4a6 6 0 1 1 12 0 6 6 0 0 1-12 0Zm2 10a3 3 0 0 0-3 3 1 1 0 1 1-2 0 5 5 0 0 1 5-5h8a5 5 0 0 1 5 5 1 1 0 1 1-2 0 3 3 0 0 0-3-3h-8Z" clip-rule="evenodd"/></svg>
